X:1
T:In templo quisquis
T:Daniel Friderici
T:Source : Bicinia sacra---Rostock---J.Richelius---1642. Editor : André Vierendeels (02/07/17)
T:Notes : Original clefs : G2, G2 Editorial accidentals above the staff  
T:In templo quisquis
T:©
T:©
T:©
C:Daniel Friderici
Z:©
%%score [ 1 2 ]
L:1/8
Q:1/4=120
M:2/2
K:F
V:1 treble nm="Soprano 1" snm="S 1"
V:2 treble nm="Soprano 2" snm="S 2"
V:1
 F4 c4 | F2 f4 e2 | f2 F2 c4 | F2 f4 e2 | f4 d3 d | d2 c2 =B2 c2 | d4 e2 f2- | f2 e2 f2 c2 | %8
w: In tem-|plo, in tem-|plo, in tem-|plo, in tem-|plo quis- quis|pu- e- * rum|non quae- rit|_ Je- sum, non|
 BABc dcde | f4 cBcd | edef g2 d2 | dcde fefg | a4 f2 f2 | d4 c3 G | AB c3 =B/A/ B2 | c8 :: d6 c2 | %17
w: quae- * * * * * * *|* rit, _ _ _|_ _ _ _ _ non|quae- * * * * * * *|rit, non quae-|rit Je- *||sum:|er- *|
 B2 A2 G4- | G2 A2 B2 A2 | G4 F4 | f2 e2 d2 c2 | B2 c2 d2 e2 | f2 g2 f2 c2 | d2 cd edef | %24
w: ||* rat,|er- * * *||||
 g4 c2 c2 | d2 c2 B4 | A2 A2 G2 F2- | F2 E2 F2 F2 | c2 d2 B4 | A2 A2 GFGA | G2 F4 E2 | F8 |] %32
w: * rat, nec|re- cta ten-|dit ad a- stra|_ vi- a, nec|re- cta ten-|dit ad a- * * *|* stra vi-|a.|
V:2
 z8 | z2 F2 c4 | F2 f4 e2 | f2 F2 c4 | F2 B4 B2 | B2 c2 G2 A2 | B4 A2 A2 | G4 F2 F2 | GFGA B4 | %9
w: |In tem-|plo, in tem-|plo, in tem-|plo quis- quis|pu- e- trm non|quae- rit Je-|* sum, non|quae- * * * *|
 F2 F2 AGAB | c4 G2 G2 | BABc d4 | A2 d2 dcde | f4 e2 g2 | f3 e d4 | c8 :: z8 | d6 c2 | %18
w: rit, non quae- * * *|* rit, non|quae- * * * *|rit non quae- * * *|* rit Je-||sum:||er- *|
 B2 A2 G2 A2 | B2 AB c4 | F4 f2 e2 | d2 c2 B2 c2 | d2 c2 d2 e2 | f2 ef g4 | c4 z2 e2 | f2 e2 d4 | %26
w: ||rat, er- *||||rat, nec|re- cta ten-|
 c2 c2 B2 A2 | G4 F2 f2 | e2 f2 d4 | c2 c2 BABc | B2 A2 G4 | F8 |] %32
w: dit ad a- stra|vi- a, nec|re- cta ten-|dit ad a- * * *|* stra vi-|a.|

